X:031
L:1/8
M:C|
K:G
f | g2 bg dgbg | gbag fdde | =f2 af dfaf | gbag =fdd^f |
g2 bg dgbg | gbag fdef | {/a}gedB c2 Bc | dB{/d}cA BGG |]

